co/google.svg

<svg viewBox="0 0 24 24" fill="none" xmlns="http://www.w3.org/2000/svg" height="1em" width="1em">
  <path d="M11.956 10.356V13.807H16.748C16.302 16 14.435 17.26 11.956 17.26C9.06851 17.2202 6.74862 14.8682 6.74862 11.9805C6.74862 9.09275 9.06851 6.74072 11.956 6.70098C13.1562 6.69954 14.3194 7.11605 15.246 7.87898L17.846 5.27898C14.8636 2.65705 10.508 2.31981 7.15752 4.45142C3.80707 6.58303 2.26698 10.6712 3.37821 14.4836C4.48943 18.296 7.98491 20.9164 11.956 20.914C16.423 20.914 20.485 17.665 20.485 11.98C20.4781 11.4326 20.411 10.8877 20.285 10.355L11.956 10.356Z" fill="black"/>
</svg>

<svg viewBox="0 0 24 24" fill="none" xmlns="http://www.w3.org/2000/svg" height="1em" width="1em">
  <path d="M11.956 10.356v3.451h4.792c-.446 2.193-2.313 3.453-4.792 3.453a5.28 5.28 0 0 1 0-10.559 5.166 5.166 0 0 1 3.29 1.178l2.6-2.6a8.93 8.93 0 1 0-5.89 15.635c4.467 0 8.529-3.249 8.529-8.934a7.468 7.468 0 0 0-.2-1.625l-8.329.001Z" fill="#000"/>
</svg>
